X:5
T:Lewis Pettit. Ru2.005
%%VWML:RutherfordVol2-2249-p3-0
F:http://www.vwml.org/record/RutherfordVol2/2249/p3
B:RUTHERFORD Complete Collection of 200 Country Dances Vol.2; 1759.
Z:vmp.Mike Hicken 2015 www.village-music-project.org.uk
M:C|
Q:1/4=100
K:Eb
eB GE e3g|fedc BAGF|GEGB e3g|fedc B4 :|
|:fdBd f3a|gaba bgeg|fdBd f3a|gfed e4|
gbeg fbdf|ecBG FDCB,|CEDF EGFA|GFED E4 :|
W:
W: First Cu: foot it and hands round with the 2d.
W: Wo: .|  the same with the 2d Man .|.  Foot it
W: and change sides the same back again and
W: cast off :|.  right hands across & left back a-
W: gain :|
T:Steane. Ru2.006, The
L:1/8
B:RUTHERFORD Complete Collection of 200 Country Dances Vol.2; 1759.
Z:vmp.Mike Hicken 2015 www.village-music-project.org.uk
M:2/4
Q:1/4=100
K:A
Ac Tc2 ({AB})|dB TB2 ({AB})|cABG|AECA,|Ac Tc2 ({Bc})|dB TB2 ({AB})|cABG|A2A,2 :|
|: ecAc|ef=ge|fdcd|AFED|f^dBd|fgaf|gef^d|e4|
gbeg|fadf|ecac|BGFE|FAGB|AcBd|cABG|A4 :|
W:
W: Cast off and right hands across with the 3d Cu. .|
W: cast up and left hands across with the 2d Cu. .|.
W: cross over two Cu. lead to the top and cast off :|.
W: Hands round 6 right and left at top :|
